X: 12827
T: Felix McSweeney's
R: slide
M: 12/8
K: Gmajor
D2E|:GAB D2E G2A B2G|ABc B2G A2G E2D|
GAB D2E G2A B2B|edB d2B A3 G3:|
|:c2d e2d BAB d2B|ABc B2G A2G E2D|
GAB D2E G2A B2d|edB d2B A3 G3:|

